X:1
T: The Bush in Blossom
C:
R:Reel
Q: 232
K:G
M:4/4
L:1/8
|:Bc|d2 BG AG EF|G2 Bd ef ge|d2 BG AG EF|GB AF G2 Bc|
d2 BG AG EF|G2 Bd ef ge|d2 BG AG EF|GB AF G2 Bd|
g2 dg eg dg|g2 bg ag ab|g2 dg eg dg|ed ef g2 ga|
b1/2b1/2b ga bg ef|ga ge de fa|b2 af gf ed|eg fa g2:|
